public/avatar/hat/112.svg

<svg xmlns:xlink="http://www.w3.org/1999/xlink" height="92.9" width="100.7" xmlns="http://www.w3.org/2000/svg"><use height="29.45" transform="translate(22.55 33.55)" width="37.1" xlink:href="#a"/><defs><g id="a" fill-rule="evenodd"><path d="m11.45 8.65-.05.85q-.9 2.05-1.95 2.25l-2.1-.5q-.3.7-1 1-.65.3-2.05-.55.55.85-.6.8l-2.1-.35q-.2.8-1.2.85l-2.3-.35q-.15.65-.95.6l-1.9-.6-1.2.4-1.6-.7q.2.7-1.4.6-.95-.05-2-.8l-.85-.75 5.35-1.25L0 8.9l11.45-.25" fill="#4a677c" transform="translate(16.1 16.2)"/><path d="m-12.85-.9.75.2 1.85 7.45.6 4.3q-1.5 1-2.7.8l-1.05-.55-.15-.45q-1.05.55-1.7-.45-.75-1.1 0-1.8l.9-.45q-.55-.1-.9-.8-.35-.75 0-1.45l.4-.55q-1.4-.9-1.25-2.3.15-.9.85-1.6l.7-.5q-.05-.9.45-1.45.45-.45 1.25-.4" fill="#0f0000" transform="translate(16.1 16.2)"/><path d="M14.2-15.8q.8-.5 1.5-.4 1.65.35 1.8 1.35l.6-.05q.8.1 1.6.8.7.65.05 1.85l.7.55q.7.75.5 1.8-.25 1.65-1.25 1.4.55 2-.6 2.45-1.2.5-2.2-.35-.1 1.15-1.35 1l-1.25-.75q-1 1.25-2.55.45-.85-.45-1.25-1.3l-.2-.75-.85.25-.5.65L8.7-6l1.25 3.05.8-.25q1-.05 2 .65.85.6.95 1.4l.95.25q1 .5 1.35 1.95.35 1.15-.35 1.9l.4.5q.4.65.25 1.45-.2 1.35-1.1 1.35.85 2.6-.15 3.1l-1.9.25-.85.55-1-.1L-8.8-.2l-3.65 1.7-.3-1.25q-.05-7.55 3-11 4.75-5.4 10.9-4.9l8.85.8.85.25 1.15-.9 1.6.25.6-.55" fill="#0f0000" transform="translate(16.1 16.2)"/><path d="M13.65-7.25q-4.15 0-2-3.85.8-1.5 2.1-2.35 1.45-.95 2.45-.45 3.1 1.55 2.4 4.05-.7 2.6-4.95 2.6" fill="#dcdcdc" transform="translate(16.1 16.2)"/><path d="m17.15-12.4-3.35-.65q-.35-2.1 1.5-1.95 1.1.05 1.4.85l.45 1.75" fill="#dcdcdc" transform="translate(16.1 16.2)"/><path d="M16.4-13q.4-.9 1.15-.85l1.4.35q.2.9-.4 1.65-.6.7-1.35.75l-.8-1.9" fill="#dcdcdc" transform="translate(16.1 16.2)"/><path d="m17.25-11.95 2 .35q1 .35.85 1.4-.2 1-.8 1.15-1.4.2-1.6-.55l-.45-2.35" fill="#dcdcdc" transform="translate(16.1 16.2)"/><path d="M18.65-9.75q-.05.4.35 1.7.25 1.25-.5 1.5-1.35.5-2.15-1.55l2.3-1.65" fill="#dcdcdc" transform="translate(16.1 16.2)"/><path d="M16.75-8.05q-.3 1.8-1.1 1.85-.8.05-.9-1.7l2-.15" fill="#dcdcdc" transform="translate(16.1 16.2)"/><path d="m12.1-9.2 2.7 1.65-1.1 1-1.55-.1q-1.7-1-.05-2.55" fill="#dcdcdc" transform="translate(16.1 16.2)"/><path d="M11.8-8.3q-1.3-.25-1.65-1.25-.55-1.6 2.55-1.05l-.9 2.3" fill="#dcdcdc" transform="translate(16.1 16.2)"/><path d="M11.75-10.35q-1.55-.65-.85-2.1.5-.95 2.35.6l-1.5 1.5" fill="#dcdcdc" transform="translate(16.1 16.2)"/><path d="m13.7-14 1.3 1.4-2.35.9q-.6-.4-.9-1.25-.35-1 .25-1.4.8-.55 1.7.35" fill="#dcdcdc" transform="translate(16.1 16.2)"/><path d="M13.35-12.95q1.4.85 1.75 2.35.4 1.55-1.25 1.4-1.65-.1-3.7.65-1.95.7-2.5 1.45-.3.45 1.65 4.15 2.05 3.9 1.9 4.7Q11 3 6.5 6.15q-4.6 3.2-6.75 3.4-1.85.15-6.95-3.2L-11.95 3q.5-9.7 2.5-12.4 4.25-5.7 11.2-5.3 9.6.55 11.6 1.75" fill="#c73221" transform="translate(16.1 16.2)"/><path d="m8.75-10.75 5.5.5-1.4 1-2.6.7q-2.6.9-2.55 1.8.05 1.55 2.5 5.25Q9 2.15 7 3.15l-3.8.1Q.95 2.7.6 1.8q-2-6.15-.5-9.4 1.45-3.15 8.65-3.15" fill="#962419" transform="translate(16.1 16.2)"/><path d="m3 11.25-5.15.15-1.5-.4-4.5-.45-4.75.2q-.65-.5-.5-1.9l.3-2.2q-1.45-3.1-.2-4.75.75-.95 2.7-.6l2.7.65 5.5.35q3.1-.6 4.75 0 1.1.35 4.7-2.4 4.7-1.45 6 .3.45.55.7 2.35.25 1.75.1 2.5l.05 2q.1 1.1-.5 1.55l-4.9-.2Q5.95 10.85 3 11.25" fill="#dcdcdc" transform="translate(16.1 16.2)"/><path d="M12.45-.35q2.1.35 2.3 1.05.2.55-.1 1.55-.3.95-.7.95.9.15 1.25.85.3.65-.2 1.1-.75.65-1.35.55 1.15 1 .7 2.95-1.45.4-3.7-1.1Q5.85 4.2 6.3 2.9L6.7.6q.45-2.25.95-2.45l1.4.1q.8.25.75.85.25-1.55 1.55-1.4 1.45.1 1.1 1.95" fill="#dcdcdc" transform="translate(16.1 16.2)"/><path d="m1.4 1.9.2-.75Q1.95.4 2.75.45q1.3.05 1.5 1.35-.05-.4.05-.9.2-.95 1-1.3.8-.35 1.25.4l.3.8-.65 3.45q-.3.6-4.45 1.35L-6 5.85q-2.95-.5-3.75-2.4l-.2-1.8.7-.7q.85-.7 1.55-.6 1.15.2 1.6 2.05l.5-.85q.7-.9 1.55-.85.85.05 1.65 1.8l.7-.9Q-.9.75-.15.7 1.05.65 1.4 1.9" fill="#dcdcdc" transform="translate(16.1 16.2)"/><path d="m-9.55 2.2-3.15.65q-.8-.35-.8-1.75.05-1.4 1.25-1.2 1.65.25 2.7 2.3" fill="#dcdcdc" transform="translate(16.1 16.2)"/><path d="m-12.7 1.95.55 3.2q-.8.45-2.35-.35-.75-.5-.65-1.55.3-1.7 2.45-1.3" fill="#dcdcdc" transform="translate(16.1 16.2)"/><path d="m-12.85 4.85.95 3.8q.55 1.2-.6 1.45l-2-.2q0-1.2 1.45-2.05-1.8-.15-1.4-1.75.4-1.65 1.6-1.25m1.95 5.3 3.65-1.3q.6.35.05 1.65-.6 1.2-1.2 1.45-.9.35-1.85-.25-1-.6-.65-1.55M6.15 8.8 11 8.1q-.45 2.5-2 2.55-2 .1-2.85-1.85" fill="#dcdcdc" transform="translate(16.1 16.2)"/><path d="m10.25 8.5 2.4-2.05q.45.65.2 1.65l-.2.8-.6.55q-1.5-.1-1.8-.95m-3.3.7q0 2.3-1.2 2.4-.35.05-1.8-1.3l3-1.1m-9.3 1 3.85.7q-.3 1.45-1.95 1.35-1.55-.15-1.9-2.05" fill="#dcdcdc" transform="translate(16.1 16.2)"/><path d="M-1.15 10.85q-1.3 2-2.7 1.5-1.75-.75-1.35-2.05l4.05.55" fill="#dcdcdc" transform="translate(16.1 16.2)"/><path d="M-3.5 10q-.4 2.25-2.75 2-1.95-.2-2.1-1.95L-3.5 10m4.4.45.6-1.25 1.35-.35q.7-.2 1.25.55.6.75 0 1.95-.4.85-1.85.4l-.75-.55-.6-.75m11.65-19.9q-.35-1.2 1.35-2.2-1.25-.85-1.05-1.45l1.35.15 1.4.2q.75 1.9.6 2.45-.25.9-1.55 1.6-1.9-.1-2.1-.75" fill="#dcdcdc" transform="translate(16.1 16.2)"/><path d="M7.3-11.9 6.25-9.85q-1.4 2.2-2.95 3.2l-4.35 3L-3.8-5.5l3.25-4.75L4.3-11.9h3" fill="#c73221" transform="translate(16.1 16.2)"/><path d="M14.1-14.5q.5-.5 1.35-.5 1.3 0 1.4 1.3l.75-.2 1.25.25q.7.6-.25 1.9l1.55.95q0 1.1-1.2 1.1l-1.5-.75q-.1.65-.75.75l-1.4-.75q-.6.75-1.35.6l-1.3-.55.65-.95.6-.3-1-.8-.05-.65-.7-.4-.45-.05v-.55q.15-.5.8-.55 1.1-.05 1.25.65l.35-.5" fill="#fff" transform="translate(16.1 16.2)"/><path d="m15.95-7.3-1.5-.9q-.2 1.15-1.25 1.15-.6 0-1-.9l-.25-.95 1.05.65q.7.05 1.65-.85l1.35.7q.8 0 1.55-.8l1.5-.15.8-.2-.9.5q.25 1.6-.55 1.75l-1.8-.9q0 .9-.65.9" fill="#9b9b9b" transform="translate(16.1 16.2)"/><path d="M-11.2-.1q.5.35 1.25 1.75l.5-.65q.7-.7 1.55-.7 1.4 0 1.85 1.75l.65-.65q.75-.7 1.35-.7 1 .05 1.65 1.6l.85-.85Q-.6.6 0 .6q.95 0 1.25 1.2L2.5.55q.95 0 .55.65-.45.8-.35.85.65.55.7 1.35.1.9-.9 1 1.15.8 1.05 1.65Q3.45 6.9 2 7q.85 1.15.1 1.85-.25.2-2.1 0 0 1.1-.5 1.3l-1.3-.2-1.2-.7-1.5.15-.65-.35-1 .1-1.35.2Q-8.25 7.9-9.4 8l-1.55.65-.85-.9h-1.25q-1.2.3-1.4-1.15-.1-.9.2-1.3l.35-.2q-1.9-.6-1.25-2.25.45-1 1.2-1l.7.2-.15-.9q-.1-.95.25-1.25.95-.6 1.95 0" fill="#fff" transform="translate(16.1 16.2)"/><path d="M10-.85q-.05-.4.45-.7.55-.3.9 0 .7.55-.1 1.75.85.15 1.2.95.25.7-.45 1.45 1.05.4 1.25 1.45.05.4-1.05 2.3.15 1.9-.8 1.95l-2.85-.75q1 0 1.05-.5 0-.45-.5-.85.9 0 1.1-.65.15-.45-.25-.95l-.4-.35.05-1.35q-.4-.85-1.35-.75.7-.65 0-1.15-.85-.6-.9-1.2 0-1.05.7-1.3l1.65.3.3.35" fill="#adadad" transform="translate(16.1 16.2)"/><path d="M11.45 4.35 12 3.9q1.4.8 1.2 2.55 0 .45-.75.85l-.35 1.3q-.65.6-2.05.25.1 1.55-1.3 1.4-.75-.1-2.15-1.5l1.45-.15q.75-.5.4-1.15 2.15-.1 2-1.65 1.1.1 1-1.45" fill="#adadad" transform="translate(16.1 16.2)"/><path d="M-9.95 3.85q1.65.9 1.5 1.7-.15.8-1.85.8-1.6 0-1.15-1.55.4-1.55 1.5-.95" fill="#ff9c37" transform="translate(16.1 16.2)"/><path d="M-.95 7.1q-1.6 0-1.15-1.55Q-1.65 4-.55 4.6q1.65.9 1.5 1.7-.2.8-1.9.8" fill="#f0632b" transform="translate(16.1 16.2)"/><path d="M10.05 2.75q1.65.9 1.5 1.7-.15.8-1.85.8-1.6 0-1.15-1.55.4-1.55 1.5-.95" fill="#ff3f2d" transform="translate(16.1 16.2)"/></g></defs></svg>

<?xml version="1.0" encoding="UTF-8" standalone="no"?>
<svg xmlns:xlink="http://www.w3.org/1999/xlink" height="92.9px" width="100.7px" xmlns="http://www.w3.org/2000/svg">
  <g transform="matrix(1.0, 0.0, 0.0, 1.0, 38.65, 49.75)">
    <use height="29.45" transform="matrix(1.0, 0.0, 0.0, 1.0, -16.1, -16.2)" width="37.1" xlink:href="#shape0"/>
  </g>
  <defs>
    <g id="shape0" transform="matrix(1.0, 0.0, 0.0, 1.0, 16.1, 16.2)">
      <path d="M11.45 8.65 L11.4 9.5 Q10.5 11.55 9.45 11.75 L7.35 11.25 Q7.05 11.95 6.35 12.25 5.7 12.55 4.3 11.7 4.85 12.55 3.7 12.5 L1.6 12.15 Q1.4 12.95 0.4 13.0 L-1.9 12.65 Q-2.05 13.3 -2.85 13.25 L-4.75 12.65 -5.95 13.05 -7.55 12.35 Q-7.35 13.05 -8.95 12.95 -9.9 12.9 -10.95 12.15 L-11.8 11.4 -6.45 10.15 0.0 8.9 11.45 8.65" fill="#4a677c" fill-rule="evenodd" stroke="none"/>
      <path d="M-12.85 -0.9 L-12.1 -0.7 -10.25 6.75 -9.65 11.05 Q-11.15 12.05 -12.35 11.85 L-13.4 11.3 -13.55 10.85 Q-14.6 11.4 -15.25 10.4 -16.0 9.3 -15.25 8.6 L-14.35 8.15 Q-14.9 8.05 -15.25 7.35 -15.6 6.6 -15.25 5.9 L-14.85 5.35 Q-16.25 4.45 -16.1 3.05 -15.95 2.15 -15.25 1.45 L-14.55 0.95 Q-14.6 0.05 -14.1 -0.5 -13.65 -0.95 -12.85 -0.9" fill="#0f0000" fill-rule="evenodd" stroke="none"/>
      <path d="M14.2 -15.8 Q15.0 -16.3 15.7 -16.2 17.35 -15.85 17.5 -14.85 L18.1 -14.9 Q18.9 -14.8 19.7 -14.1 20.4 -13.45 19.75 -12.25 L20.45 -11.7 Q21.15 -10.95 20.95 -9.9 20.7 -8.25 19.7 -8.5 20.25 -6.5 19.1 -6.05 17.9 -5.55 16.9 -6.4 16.8 -5.25 15.55 -5.4 L14.3 -6.15 Q13.3 -4.9 11.75 -5.7 10.9 -6.15 10.5 -7.0 L10.3 -7.75 9.45 -7.5 8.95 -6.85 8.7 -6.0 9.95 -2.95 10.75 -3.2 Q11.75 -3.25 12.75 -2.55 13.6 -1.95 13.7 -1.15 L14.65 -0.9 Q15.65 -0.4 16.0 1.05 16.35 2.2 15.65 2.95 L16.05 3.45 Q16.45 4.1 16.3 4.9 16.1 6.25 15.2 6.25 16.05 8.85 15.05 9.35 L13.15 9.6 12.3 10.15 11.3 10.05 -8.8 -0.2 -12.45 1.5 -12.75 0.25 Q-12.8 -7.3 -9.75 -10.75 -5.0 -16.15 1.15 -15.65 L10.0 -14.85 10.85 -14.6 12.0 -15.5 13.6 -15.25 14.2 -15.8" fill="#0f0000" fill-rule="evenodd" stroke="none"/>
      <path d="M13.65 -7.25 Q9.5 -7.25 11.65 -11.1 12.45 -12.6 13.75 -13.45 15.2 -14.4 16.2 -13.9 19.3 -12.35 18.6 -9.85 17.9 -7.25 13.65 -7.25" fill="#dcdcdc" fill-rule="evenodd" stroke="none"/>
      <path d="M17.15 -12.4 L13.8 -13.05 Q13.45 -15.15 15.3 -15.0 16.4 -14.95 16.7 -14.15 L17.15 -12.4" fill="#dcdcdc" fill-rule="evenodd" stroke="none"/>
      <path d="M16.4 -13.0 Q16.8 -13.9 17.55 -13.85 L18.95 -13.5 Q19.15 -12.6 18.55 -11.85 17.95 -11.15 17.2 -11.1 L16.4 -13.0" fill="#dcdcdc" fill-rule="evenodd" stroke="none"/>
      <path d="M17.25 -11.95 L19.25 -11.6 Q20.25 -11.25 20.1 -10.2 19.9 -9.2 19.3 -9.05 17.9 -8.85 17.7 -9.6 L17.25 -11.95" fill="#dcdcdc" fill-rule="evenodd" stroke="none"/>
      <path d="M18.65 -9.75 Q18.6 -9.35 19.0 -8.05 19.25 -6.8 18.5 -6.55 17.15 -6.05 16.35 -8.1 L18.65 -9.75" fill="#dcdcdc" fill-rule="evenodd" stroke="none"/>
      <path d="M16.75 -8.05 Q16.45 -6.25 15.65 -6.2 14.85 -6.15 14.75 -7.9 L16.75 -8.05" fill="#dcdcdc" fill-rule="evenodd" stroke="none"/>
      <path d="M12.1 -9.2 L14.8 -7.55 13.7 -6.55 12.15 -6.65 Q10.45 -7.65 12.1 -9.2" fill="#dcdcdc" fill-rule="evenodd" stroke="none"/>
      <path d="M11.8 -8.3 Q10.5 -8.55 10.15 -9.55 9.6 -11.15 12.7 -10.6 L11.8 -8.3" fill="#dcdcdc" fill-rule="evenodd" stroke="none"/>
      <path d="M11.75 -10.35 Q10.2 -11.0 10.9 -12.45 11.4 -13.4 13.25 -11.85 L11.75 -10.35" fill="#dcdcdc" fill-rule="evenodd" stroke="none"/>
      <path d="M13.7 -14.0 L15.0 -12.6 12.65 -11.7 Q12.05 -12.1 11.75 -12.95 11.4 -13.95 12.0 -14.35 12.8 -14.9 13.7 -14.0" fill="#dcdcdc" fill-rule="evenodd" stroke="none"/>
      <path d="M13.35 -12.95 Q14.75 -12.1 15.1 -10.6 15.5 -9.05 13.85 -9.2 12.2 -9.3 10.15 -8.55 8.2 -7.85 7.65 -7.1 7.35 -6.65 9.3 -2.95 11.35 0.95 11.2 1.75 11.0 3.0 6.5 6.15 1.9 9.35 -0.25 9.55 -2.1 9.7 -7.2 6.35 L-11.95 3.0 Q-11.45 -6.7 -9.45 -9.4 -5.2 -15.1 1.75 -14.7 11.35 -14.15 13.35 -12.95" fill="#c73221" fill-rule="evenodd" stroke="none"/>
      <path d="M8.75 -10.75 L14.25 -10.25 12.85 -9.25 10.25 -8.55 Q7.65 -7.65 7.7 -6.75 7.75 -5.2 10.2 -1.5 9.0 2.15 7.0 3.15 L3.2 3.25 Q0.95 2.7 0.6 1.8 -1.4 -4.35 0.1 -7.6 1.55 -10.75 8.75 -10.75" fill="#962419" fill-rule="evenodd" stroke="none"/>
      <path d="M3.0 11.25 L-2.15 11.4 -3.65 11.0 -8.15 10.55 -12.9 10.75 Q-13.55 10.25 -13.4 8.85 L-13.1 6.65 Q-14.55 3.55 -13.3 1.9 -12.55 0.95 -10.6 1.3 L-7.9 1.95 -2.4 2.3 Q0.7 1.7 2.35 2.3 3.45 2.65 7.05 -0.1 11.75 -1.55 13.05 0.2 13.5 0.75 13.75 2.55 14.0 4.3 13.85 5.05 L13.9 7.05 Q14.0 8.15 13.4 8.6 L8.5 8.4 Q5.95 10.85 3.0 11.25" fill="#dcdcdc" fill-rule="evenodd" stroke="none"/>
      <path d="M12.45 -0.35 Q14.55 0.0 14.75 0.7 14.95 1.25 14.65 2.25 14.35 3.2 13.95 3.2 14.85 3.35 15.2 4.05 15.5 4.7 15.0 5.15 14.25 5.8 13.65 5.7 14.8 6.7 14.35 8.65 12.9 9.05 10.65 7.55 5.85 4.2 6.3 2.9 L6.7 0.6 Q7.15 -1.65 7.65 -1.85 L9.05 -1.75 Q9.85 -1.5 9.8 -0.9 10.05 -2.45 11.35 -2.3 12.8 -2.2 12.45 -0.35" fill="#dcdcdc" fill-rule="evenodd" stroke="none"/>
      <path d="M1.4 1.9 L1.6 1.15 Q1.95 0.4 2.75 0.45 4.05 0.5 4.25 1.8 4.2 1.4 4.3 0.9 4.5 -0.05 5.3 -0.4 6.1 -0.75 6.55 0.0 L6.85 0.8 6.2 4.25 Q5.9 4.85 1.75 5.6 L-6.0 5.85 Q-8.95 5.35 -9.75 3.45 L-9.95 1.65 -9.25 0.95 Q-8.4 0.25 -7.7 0.35 -6.55 0.55 -6.1 2.4 L-5.6 1.55 Q-4.9 0.65 -4.05 0.7 -3.2 0.75 -2.4 2.5 L-1.7 1.6 Q-0.9 0.75 -0.15 0.7 1.05 0.65 1.4 1.9" fill="#dcdcdc" fill-rule="evenodd" stroke="none"/>
      <path d="M-9.55 2.2 L-12.7 2.85 Q-13.5 2.5 -13.5 1.1 -13.45 -0.3 -12.25 -0.1 -10.6 0.15 -9.55 2.2" fill="#dcdcdc" fill-rule="evenodd" stroke="none"/>
      <path d="M-12.7 1.95 L-12.15 5.15 Q-12.95 5.6 -14.5 4.8 -15.25 4.3 -15.15 3.25 -14.85 1.55 -12.7 1.95" fill="#dcdcdc" fill-rule="evenodd" stroke="none"/>
      <path d="M-12.85 4.85 L-11.9 8.65 Q-11.35 9.85 -12.5 10.1 L-14.5 9.9 Q-14.5 8.7 -13.05 7.85 -14.85 7.7 -14.45 6.1 -14.05 4.45 -12.85 4.85" fill="#dcdcdc" fill-rule="evenodd" stroke="none"/>
      <path d="M-10.9 10.15 L-7.25 8.85 Q-6.65 9.2 -7.2 10.5 -7.8 11.7 -8.4 11.95 -9.3 12.3 -10.25 11.7 -11.25 11.1 -10.9 10.15" fill="#dcdcdc" fill-rule="evenodd" stroke="none"/>
      <path d="M6.15 8.8 L11.0 8.1 Q10.55 10.6 9.0 10.65 7.0 10.75 6.15 8.8" fill="#dcdcdc" fill-rule="evenodd" stroke="none"/>
      <path d="M10.25 8.5 L12.65 6.45 Q13.1 7.1 12.85 8.1 L12.65 8.9 12.05 9.45 Q10.55 9.35 10.25 8.5" fill="#dcdcdc" fill-rule="evenodd" stroke="none"/>
      <path d="M6.95 9.2 Q6.95 11.5 5.75 11.6 5.4 11.65 3.95 10.3 L6.95 9.2" fill="#dcdcdc" fill-rule="evenodd" stroke="none"/>
      <path d="M-2.35 10.2 L1.5 10.9 Q1.2 12.35 -0.45 12.25 -2.0 12.1 -2.35 10.2" fill="#dcdcdc" fill-rule="evenodd" stroke="none"/>
      <path d="M-1.15 10.85 Q-2.45 12.85 -3.85 12.35 -5.6 11.6 -5.2 10.3 L-1.15 10.85" fill="#dcdcdc" fill-rule="evenodd" stroke="none"/>
      <path d="M-3.5 10.0 Q-3.9 12.25 -6.25 12.0 -8.2 11.8 -8.35 10.05 L-3.5 10.0" fill="#dcdcdc" fill-rule="evenodd" stroke="none"/>
      <path d="M0.9 10.45 L1.5 9.2 2.85 8.85 Q3.55 8.65 4.1 9.4 4.7 10.15 4.1 11.35 3.7 12.2 2.25 11.75 L1.5 11.2 0.9 10.45" fill="#dcdcdc" fill-rule="evenodd" stroke="none"/>
      <path d="M12.55 -9.45 Q12.2 -10.65 13.9 -11.65 12.65 -12.5 12.85 -13.1 L14.2 -12.95 15.6 -12.75 Q16.35 -10.85 16.2 -10.3 15.95 -9.4 14.65 -8.7 12.75 -8.8 12.55 -9.45" fill="#dcdcdc" fill-rule="evenodd" stroke="none"/>
      <path d="M7.3 -11.9 L6.25 -9.85 Q4.85 -7.65 3.3 -6.65 L-1.05 -3.65 -3.8 -5.5 -0.55 -10.25 4.3 -11.9 7.3 -11.9" fill="#c73221" fill-rule="evenodd" stroke="none"/>
      <path d="M14.1 -14.5 Q14.6 -15.0 15.45 -15.0 16.75 -15.0 16.85 -13.7 L17.6 -13.9 18.85 -13.65 Q19.55 -13.05 18.6 -11.75 L20.15 -10.8 Q20.15 -9.7 18.95 -9.7 L17.45 -10.45 Q17.35 -9.8 16.7 -9.7 L15.3 -10.45 Q14.7 -9.7 13.95 -9.85 L12.65 -10.4 13.3 -11.35 13.9 -11.65 12.9 -12.45 12.85 -13.1 12.15 -13.5 11.7 -13.55 11.7 -14.1 Q11.85 -14.6 12.5 -14.65 13.6 -14.7 13.75 -14.0 L14.1 -14.5" fill="#ffffff" fill-rule="evenodd" stroke="none"/>
      <path d="M15.95 -7.3 L14.45 -8.2 Q14.25 -7.05 13.2 -7.05 12.6 -7.05 12.2 -7.95 L11.95 -8.9 13.0 -8.25 Q13.7 -8.2 14.65 -9.1 L16.0 -8.4 Q16.8 -8.4 17.55 -9.2 L19.05 -9.35 19.85 -9.55 18.95 -9.05 Q19.2 -7.45 18.4 -7.3 L16.6 -8.2 Q16.6 -7.3 15.95 -7.3" fill="#9b9b9b" fill-rule="evenodd" stroke="none"/>
      <path d="M-11.2 -0.1 Q-10.7 0.25 -9.95 1.65 L-9.45 1.0 Q-8.75 0.3 -7.9 0.3 -6.5 0.3 -6.05 2.05 L-5.4 1.4 Q-4.65 0.7 -4.05 0.7 -3.05 0.75 -2.4 2.3 L-1.55 1.45 Q-0.6 0.6 0.0 0.6 0.95 0.6 1.25 1.8 L2.5 0.55 Q3.45 0.55 3.05 1.2 2.6 2.0 2.7 2.05 3.35 2.6 3.4 3.4 3.5 4.3 2.5 4.4 3.65 5.2 3.55 6.05 3.45 6.9 2.0 7.0 2.85 8.15 2.1 8.85 1.85 9.05 0.0 8.85 0.0 9.95 -0.5 10.15 L-1.8 9.95 -3.0 9.25 -4.5 9.4 -5.15 9.05 -6.15 9.15 -7.5 9.35 Q-8.25 7.9 -9.4 8.0 L-10.95 8.65 -11.8 7.75 -13.05 7.75 Q-14.25 8.05 -14.45 6.6 -14.55 5.7 -14.25 5.3 L-13.9 5.1 Q-15.8 4.5 -15.15 2.85 -14.7 1.85 -13.95 1.85 L-13.25 2.05 -13.4 1.15 Q-13.5 0.2 -13.15 -0.1 -12.2 -0.7 -11.2 -0.1" fill="#ffffff" fill-rule="evenodd" stroke="none"/>
      <path d="M10.0 -0.85 Q9.95 -1.25 10.45 -1.55 11.0 -1.85 11.35 -1.55 12.05 -1.0 11.25 0.2 12.1 0.35 12.45 1.15 12.7 1.85 12.0 2.6 13.05 3.0 13.25 4.05 13.3 4.45 12.2 6.35 12.35 8.25 11.4 8.3 L8.55 7.55 Q9.55 7.55 9.6 7.05 9.6 6.6 9.1 6.2 10.0 6.2 10.2 5.55 10.35 5.1 9.95 4.6 L9.55 4.25 9.6 2.9 Q9.2 2.05 8.25 2.15 8.95 1.5 8.25 1.0 7.4 0.4 7.35 -0.2 7.35 -1.25 8.05 -1.5 L9.7 -1.2 10.0 -0.85" fill="#adadad" fill-rule="evenodd" stroke="none"/>
      <path d="M11.45 4.35 L12.0 3.9 Q13.4 4.7 13.2 6.45 13.2 6.9 12.45 7.3 L12.1 8.6 Q11.45 9.2 10.05 8.85 10.15 10.4 8.75 10.25 8.0 10.15 6.6 8.75 L8.05 8.6 Q8.8 8.1 8.45 7.45 10.6 7.35 10.45 5.8 11.55 5.9 11.45 4.35" fill="#adadad" fill-rule="evenodd" stroke="none"/>
      <path d="M-9.95 3.85 Q-8.3 4.75 -8.45 5.55 -8.6 6.35 -10.3 6.35 -11.9 6.35 -11.45 4.8 -11.05 3.25 -9.95 3.85" fill="#ff9c37" fill-rule="evenodd" stroke="none"/>
      <path d="M-0.95 7.1 Q-2.55 7.1 -2.1 5.55 -1.65 4.0 -0.55 4.6 1.1 5.5 0.95 6.3 0.75 7.1 -0.95 7.1" fill="#f0632b" fill-rule="evenodd" stroke="none"/>
      <path d="M10.05 2.75 Q11.7 3.65 11.55 4.45 11.4 5.25 9.7 5.25 8.1 5.25 8.55 3.7 8.95 2.15 10.05 2.75" fill="#ff3f2d" fill-rule="evenodd" stroke="none"/>
    </g>
  </defs>
</svg>
